!!!Rep U0573
!!!Isim(Name): Bir Gün Şu Düyadan Göçüp Gidersem
!!!Yore(Region): Malatya - Arguvan
!!!Makam: Hüseyni
!!!Arizalar(Accidentals): b-2
!!!Usul: Serbest
**kern	**Dcent
*staff1	*.
=1-	=1-
*clefG2	*.
*k[b-]	*.
*MX/X	*.
16cc	0
16dd	0
16ee	0
16ee	0
16ee	0
16ee	0
16ee	0
16ee	0
4ee;	0
=2	=2
8ee	0
4ee;	0
8ee	0
4ee;	0
=3	=3
16ff	0
16ee	0
4ff;	0
8ee	0
8dd;	0
=4	=4
!!linebreak:default
16ee	0
8.dd;	0
16ee	0
8.dd;	0
16ee	0
8.dd;	0
16ee	0
8.dd	0
=5	=5
16ee	0
16dd	0
4ee;	0
16dd	0
8cc;	0
=6	=6
16cc	0
16dd	0
16ee	0
16ee	0
16ee	0
16ee	0
16ee	0
16ee	0
4ee;	0
=7	=7
!!linebreak:default
8ee	0
4ee;	0
8ee	0
4ee;	0
=8	=8
8ff	0
4ee;	0
8ff	0
4ee;	0
=9	=9
2dd	0
16ff	0
16ee	0
4ff;	0
8ee	0
8dd;	0
=10	=10
8ee	0
4dd	0
8ee	0
8dd;	0
16dd	0
8ee	0
8dd;	0
16dd	0
=11	=11
!!linebreak:default
16ee	0
16dd	0
4ee;	0
16dd	0
8.cc;	0
=12	=12
16dd	0
16dd	0
16.ee	0
32cc	0
16ee	0
16dd	0
4ee;	0
16dd	0
8.cc	0
=13	=13
8dd	0
8b-	50
8a;	0
=14	=14
!!linebreak:default
16dd	0
16cc	0
16dd	0
16cc	0
8dd	0
16dd	0
16cc	0
8dd	0
16cc	0
16b-	50
4b-;	50
=15	=15
16cc	0
16b-	50
8cc	0
16b-	50
16a;	0
16cc	0
16b-	50
8cc	0
16b-	50
16a;	0
=16	=16
16ee	0
16dd	0
16.ee	0
32cc	0
16ee	0
16dd	0
4ee;	0
16dd	0
8.cc;	0
=17	=17
!!linebreak:default
8dd	0
8b-	50
8a;	0
16dd	0
16cc	0
16dd	0
16dd	0
16dd	0
16.b-	50
16dd	0
16cc	0
8dd	0
16cc	0
16b-	50
4.b-;	50
=18	=18
16cc	0
16.b-	50
8cc	0
16b-	50
16a;	0
16cc	0
16b-	50
8cc	0
16b-	50
16a;	0
=19	=19
!!linebreak:default
16eeQ	0
16ddQ	0
16eeQ	0
16ccQ	0
16ddQ	0
16ccQ	0
32ddQ	0
32ggQ	0
16eeQ	0
8eeQ;	0
8eeQ	0
4eeQ;	0
*-	*-
!! Uzun Hava Humdrum Bilgi Bankasi (Uzun Hava Humdrum Database)
!! 
!! Sertan Senturk, Parag Chordia & Erdal Tugcular
!! Georgia Tech Center for Music Technology, 2011
